**kern	**silbe
*ICvox	*
=1	=1
*d:	*
*M4/4	*
*clefC3	*
1r	.
=2	=2
2r	.
8r	.
8f	Hah!
4r	.
=3	=3
1r	.
=4	=4
2r	.
4r	.
8cc	I
8cc	don't
=5	=5
8a-	care
16g	_
16f	_
4r	,
4r	.
8r	.
8g	hah
=6	=6
8r	!
8c	Uh
4r	!
8r	.
8c	A-
8d	-bout
8c	your
=7	=7
16f	past
[8.c	_
8.c]	_
16r	.
2r	.
=8	=8
2r	.
4r	.
8cc	I
[8cc	just
=9	=9
8cc]	want
gq	_
8a-	_
16g	_
[8.f	_
8f]	_
16g	_
16a	_
4r	,
=10	=10
8r	.
16a	Heaugh
16f	_
4r	!
8r	.
8d	Our
8e	love
8c	to
=11	=11
8B	last
4A	_
8r	.
8r	.
8a-	Uh
4r	!
=12	=12
2r	.
4r	.
8cc	I
8cc	don't
=13	=13
gq	_
4a-	care
16g	_
16f	_
8r	,
8r	.
fq	_
[8g	dar
16g]	_
16a	ling
8r	,
=14	=14
2r	.
8r	.
8c	a-
8d	-bout
8c	your
=15	=15
8r	.
4f	faults
8r	!
8r	.
8ff	Hah
8r	!
8d	Uh
=16	=16
2r	!
4r	.
8cc	I
[8cc	just
=17	=17
8cc]	_
gq	_
8a-	want
12g	_
12f	_
12g	_
8a	_
8r	,
4r	.
=18	=18
2r	.
8r	.
8c	to
8c	sa-
8c	-tis-
=19	=19
8d	-fy
8d	your
4e	pulse
2r	!
=20	=20
8r	.
4.cc	Oh
4.dd	_
8r	!
=21	=21
1r	.
=22	=22
4r	.
8r	.
8cc	When
8b-	you
8cc	kiss
8r	.
b-q	_
[8cc	me
=23	=23
8cc]	_
16b-	_
16g	_
16f	_
16e-	_
8r	!
2r	.
=24	=24
2r	.
8.r	.
[16cc	When
16cc]	_
8b-	you
[16cc	miss
=25	=25
8cc]	_
16cc	me
16dd	_
4r	!
2r	.
=26	=26
2r	.
4r	.
8r	.
b-q	_
[8cc	Hold
=27	=27
8cc]	_
8b-	my
8g	hand
16f	_
[16e-	_
16e-]	_
16f	_
8g	_
4r	!
=28	=28
2r	.
8r	.
8cc	Make
16b-	me
8.cc	un-
=29	=29
b-q	_
2cc	-der-
8b-	-stand
b-q	_
[8f	_
8f]	_
16f	_
16e-	_
=30	=30
8c	_
8r	!
4r	.
2r	.
=31	=31
2r	.
8r	.
8b-	I
8cc	break
8cc	out!
=32	=32
1r	.
=33	=33
4r	.
8r	.
16cc	In
16b-	a
8r	.
4.cc	cold
=34	=34
8cc	sweat
8r	!
4r	.
2r	.
=35	=35
2r	.
8r	.
8cc	Ho
8f	_
8r	!
=36	=36
2r	.
8r	.
8cc	Uh!
4r	.
=37	=37
1r	.
=38	=38
2r	.
8r	.
8dd	Oh
4r	!
=39	=39
2r	.
4r	.
8cc	I
8cc	don't
=40	=40
gq	_
8a-	care
16g	_
16f	_
4r	,
2r	.
=41	=41
2r	.
8r	.
8c	a-
8d	-bout
[8d	your
=42	=42
8d]	_
4f	wants
8r	.
2r	.
=43	=43
2r	.
4r	.
8cc	I
8cc	just
=44	=44
4a	w-
16cc	-wan-
16dd	-na
8r	,
8r	.
8e	hah!
4r	.
=45	=45
2r	.
8r	.
8d	Tell
8B	you
8d	'bout
=46	=46
8B	the
4f	do's
8B	and
8B	don'ts
8r	!
4r	.
=47	=47
2r	.
4r	.
16cc	I
8.cc	don't
=48	=48
gq	_
16a-	care
16g	_
8r	,
4r	.
2r	.
=49	=49
2r	.
8r	.
8c	a-
8d	-bout
8c	the
=50	=50
8f	way
8g	you
8a	treat
16a	me
16g	_
8f	_
fq	_
[8g	dar
16g]	_
8a	ling
16r	!
=51	=51
2r	.
4r	.
8cc	I
8cc	just
=52	=52
gq	_
8a-	want
16g	_
16f	_
4r	,
8r	.
8c	hah!
4r	.
=53	=53
2r	.
4r	.
8B	To
8d	un-
=54	=54
8e	-der-
8f	-stand
8d	_
[8d	me
8d]	,
[8e	ho
16e]	_
8.B	ney
=55	=55
4r	!
8r	.
8cc	Oh
4.dd	_
8r	!
=56	=56
1r	.
=57	=57
4r	.
8r	.
8cc	When
8b-	you
8cc	kiss
8r	.
b-q	_
[8cc	me
=58	=58
2cc_	_
8cc]	_
16g-	_
16f	_
8f	_
8r	!
=59	=59
2r	.
8r	.
8b-	When
8cc	you
[8ee-	miss
=60	=60
8ee-]	_
8b-	me
4r	!
2r	.
=61	=61
2r	.
16r	.
16f	You
[8dd	hold
16dd]	_
[8.cc	me
=62	=62
8cc]	_
16b-	tight
16g	_
16f	_
8e-	_
[16f	_
16f]	_
16e-	_
16g	_
[16g	_
16g]	_
8.r	!
=63	=63
2r	.
8r	.
8cc	Make
16b-	ev
[8.cc	_
=64	=64
2cc]	_
8gg	'ry-
8f	-thing
16g	_
16f	_
16e-	al
[16f	_
=65	=65
8f]	_
16e-	right
16c	_
4r	!
8r	.
8a	I
8b-	break
8b-	out!
=66	=66
1r	.
=67	=67
4r	.
8r	.
16cc	In
16b-	a
8r	.
4.cc	cold
=68	=68
8cc	sweat
8r	!
4r	.
4r	.
8r	.
8a	Hah!
=69	=69
1r	.
*-	*-
!!!ENC: Nathaniel Condit-Schultz